;FLAVOR:Marlin
;TIME:34349
;Filament used: 24.8882m
;Layer height: 0.2
;MINX:8.45
;MINY:30.294
;MINZ:0.2
;MAXX:141.55
;MAXY:189.706
;MAXZ:31.6
;Generated with Cura_SteamEngine 4.7.1
M140 S60
M105
M190 S60
M104 S200
M105
M109 S200
M82 ;absolute extrusion mode
; Ender 3 Custom Start G-code
G92 E0 ; Reset Extruder
G28 ; Home all axes
G29 ; Auto Bed Level
G1 Z2.0 F3000 ; Move Z Axis up little to prevent scratching of Heat Bed
G1 X0.1 Y20 Z0.3 F5000.0 ; Move to start position
G1 X0.1 Y200.0 Z0.3 F1500.0 E15 ; Draw the first line
G1 X0.4 Y200.0 Z0.3 F5000.0 ; Move to side a little
G1 X0.4 Y20 Z0.3 F1500.0 E30 ; Draw the second line
G92 E0 ; Reset Extruder
G1 Z2.0 F3000 ; Move Z Axis up little to prevent scratching of Heat Bed
G1 X5 Y20 Z0.3 F5000.0 ; Move over to prevent blob squish
G92 E0
G92 E0
G1 F1500 E-6.5
;LAYER_COUNT:158
;LAYER:0
M107
;MESH:FrameSupport.stl(4)
G0 F6000 X131.625 Y53.306 Z0.2
;TYPE:WALL-INNER
G1 F1500 E0
G1 F1200 X88.375 Y53.306 E1.4385
G1 X88.375 Y34.256 E2.07211
G1 X78.85 Y34.256 E2.38891
G1 X78.85 Y30.694 E2.50738
G1 X96.7 Y30.694 E3.10108
G1 X96.7 Y44.981 E3.57626
G1 X123.3 Y44.981 E4.46098
G1 X123.3 Y30.694 E4.93617
G1 X141.15 Y30.694 E5.52986
G1 X141.15 Y34.256 E5.64834
G1 X131.625 Y34.256 E5.96514
G1 X131.625 Y53.306 E6.59874
G0 F6000 X132.025 Y53.706
;TYPE:WALL-OUTER
G1 F1200 X87.975 Y53.706 E8.06385
G1 X87.975 Y34.656 E8.69746
G1 X78.45 Y34.656 E9.01426
G1 X78.45 Y30.294 E9.15934
G1 X97.1 Y30.294 E9.77964
G1 X97.1 Y44.581 E10.25483
G1 X122.9 Y44.581 E11.11294
G1 X122.9 Y30.294 E11.58813
G1 X141.55 Y30.294 E12.20843
G1 X141.55 Y34.656 E12.35351
G1 X132.025 Y34.656 E12.67032
G1 X132.025 Y53.706 E13.30392
G0 F6000 X131.755 Y53.436
G0 X131.515 Y52.916
G0 X131.235 Y52.916
;TYPE:SKIN
G1 F1200 X88.765 Y52.916 E14.71648
G1 X88.765 Y33.866 E15.35008
G1 X79.24 Y33.866 E15.66689
G1 X79.24 Y31.084 E15.75942
G1 X96.31 Y31.084 E16.32717
G1 X96.31 Y45.371 E16.80236
G1 X123.69 Y45.371 E17.71302
G1 X123.69 Y31.084 E18.18821
G1 X140.76 Y31.084 E18.75596
G1 X140.76 Y33.866 E18.84849
G1 X131.235 Y33.866 E19.16529
G1 X131.235 Y52.916 E19.79889
G1 F1500 E13.29889
G0 F6000 X131.515 Y52.916
G0 X131.797 Y34.428
G0 X140.968 Y34.074
G0 X141.04 Y31.422
G0 X140.599 Y31.422
G1 F1500 E19.79889
G1 F1200 X140.421 Y31.244 E19.80727
G0 F6000 X139.855 Y31.244
G1 F1200 X140.599 Y31.988 E19.84226
G0 F6000 X140.599 Y32.553
G1 F1200 X139.29 Y31.244 E19.90383
G0 F6000 X138.724 Y31.244
G1 F1200 X140.599 Y33.119 E19.99203
G0 F6000 X140.599 Y33.685
G1 F1200 X138.158 Y31.244 E20.10684
G0 F6000 X137.593 Y31.244
G1 F1200 X140.054 Y33.705 E20.2226
G0 F6000 X139.488 Y33.705
G1 F1200 X137.027 Y31.244 E20.33836
G0 F6000 X136.461 Y31.244
G1 F1200 X138.923 Y33.705 E20.45414
G0 F6000 X138.357 Y33.705
G1 F1200 X135.896 Y31.244 E20.5699
G0 F6000 X135.33 Y31.244
G1 F1200 X137.791 Y33.705 E20.68566
G0 F6000 X137.226 Y33.705
G1 F1200 X134.764 Y31.244 E20.80144
G0 F6000 X134.198 Y31.244
G1 F1200 X136.66 Y33.705 E20.91722
G0 F6000 X136.094 Y33.705
G1 F1200 X133.633 Y31.244 E21.03298
G0 F6000 X133.067 Y31.244
G1 F1200 X135.529 Y33.705 E21.14876
G0 F6000 X134.963 Y33.705
G1 F1200 X132.501 Y31.244 E21.26454
G0 F6000 X131.936 Y31.244
G1 F1200 X134.397 Y33.705 E21.3803
G0 F6000 X133.831 Y33.705
G1 F1200 X131.37 Y31.244 E21.49606
G0 F6000 X130.804 Y31.244
G1 F1200 X133.266 Y33.705 E21.61184
G0 F6000 X132.7 Y33.705
G1 F1200 X130.239 Y31.244 E21.7276
G0 F6000 X129.673 Y31.244
G1 F1200 X132.134 Y33.705 E21.84335
G0 F6000 X131.569 Y33.705
G1 F1200 X129.107 Y31.244 E21.95914
G0 F6000 X128.542 Y31.244
G1 F1200 X131.074 Y33.776 E22.07823
G0 F6000 X131.074 Y34.342
G1 F1200 X127.976 Y31.244 E22.22395
G0 F6000 X127.41 Y31.244
G1 F1200 X131.074 Y34.907 E22.39627
G0 F6000 X131.074 Y35.473
G1 F1200 X126.845 Y31.244 E22.59519
G0 F6000 X126.279 Y31.244
G1 F1200 X131.074 Y36.039 E22.82073
G0 F6000 X131.074 Y36.604
G1 F1200 X125.713 Y31.244 E23.07288
G0 F6000 X125.148 Y31.244
G1 F1200 X131.074 Y37.17 E23.35162
G0 F6000 X131.074 Y37.736
G1 F1200 X124.582 Y31.244 E23.65698
G0 F6000 X124.016 Y31.244
G1 F1200 X131.074 Y38.301 E23.98894
G0 F6000 X131.074 Y38.867
G1 F1200 X123.849 Y31.642 E24.32879
G0 F6000 X123.849 Y32.208
G1 F1200 X131.074 Y39.433 E24.66863
G0 F6000 X131.074 Y39.998
G1 F1200 X123.849 Y32.773 E25.00847
G0 F6000 X123.849 Y33.339
G1 F1200 X131.074 Y40.564 E25.34831
G0 F6000 X131.074 Y41.13
G1 F1200 X123.849 Y33.905 E25.68815
G0 F6000 X123.849 Y34.47
G1 F1200 X131.074 Y41.695 E26.02799
G0 F6000 X131.074 Y42.261
G1 F1200 X123.849 Y35.036 E26.36784
G0 F6000 X123.849 Y35.602
G1 F1200 X131.074 Y42.827 E26.70768
G0 F6000 X131.074 Y43.393
G1 F1200 X123.849 Y36.167 E27.04754
G0 F6000 X123.849 Y36.733
G1 F1200 X131.074 Y43.958 E27.38739
G0 F6000 X131.074 Y44.524
G1 F1200 X123.849 Y37.299 E27.72723
G0 F6000 X123.849 Y37.864
G1 F1200 X131.074 Y45.09 E28.06709
G0 F6000 X131.074 Y45.655
G1 F1200 X123.849 Y38.43 E28.40693
G0 F6000 X123.849 Y38.996
G1 F1200 X131.074 Y46.221 E28.74678
G0 F6000 X131.074 Y46.787
G1 F1200 X123.849 Y39.561 E29.08664
G0 F6000 X123.849 Y40.127
G1 F1200 X131.074 Y47.352 E29.42648
G0 F6000 X131.074 Y47.918
G1 F1200 X123.849 Y40.693 E29.76633
G0 F6000 X123.849 Y41.258
G1 F1200 X131.074 Y48.484 E30.10619
G0 F6000 X131.074 Y49.049
G1 F1200 X123.849 Y41.824 E30.44603
G0 F6000 X123.849 Y42.39
G1 F1200 X131.074 Y49.615 E30.78587
G0 F6000 X131.074 Y50.181
G1 F1200 X123.849 Y42.956 E31.12572
G0 F6000 X123.849 Y43.521
G1 F1200 X131.074 Y50.746 E31.46556
G0 F6000 X131.074 Y51.312
G1 F1200 X123.849 Y44.087 E31.8054
G0 F6000 X123.849 Y44.653
G1 F1200 X131.074 Y51.878 E32.14524
G0 F6000 X131.074 Y52.443
G1 F1200 X123.849 Y45.218 E32.48508
G0 F6000 X123.595 Y45.531
G1 F1200 X130.82 Y52.755 E32.8249
G0 F6000 X130.254 Y52.755
G1 F1200 X123.03 Y45.531 E33.1647
G0 F6000 X122.464 Y45.531
G1 F1200 X129.689 Y52.755 E33.50452
G0 F6000 X129.123 Y52.755
G1 F1200 X121.898 Y45.531 E33.84433
G0 F6000 X121.333 Y45.531
G1 F1200 X128.557 Y52.755 E34.18413
G0 F6000 X127.991 Y52.755
G1 F1200 X120.767 Y45.531 E34.52392
G0 F6000 X120.201 Y45.531
G1 F1200 X127.426 Y52.755 E34.86374
G0 F6000 X126.86 Y52.755
G1 F1200 X119.636 Y45.531 E35.20354
G0 F6000 X119.07 Y45.531
G1 F1200 X126.294 Y52.755 E35.54333
G0 F6000 X125.729 Y52.755
G1 F1200 X118.504 Y45.531 E35.88315
G0 F6000 X117.939 Y45.531
G1 F1200 X125.163 Y52.755 E36.22294
G0 F6000 X124.597 Y52.755
G1 F1200 X117.373 Y45.531 E36.56274
G0 F6000 X116.807 Y45.531
G1 F1200 X124.032 Y52.755 E36.90256
G0 F6000 X123.466 Y52.755
G1 F1200 X116.241 Y45.531 E37.24238
G0 F6000 X115.676 Y45.531
G1 F1200 X122.9 Y52.755 E37.58217
G0 F6000 X122.335 Y52.755
G1 F1200 X115.11 Y45.531 E37.92199
G0 F6000 X114.544 Y45.531
G1 F1200 X121.769 Y52.755 E38.26181
G0 F6000 X121.203 Y52.755
G1 F1200 X113.979 Y45.531 E38.6016
G0 F6000 X113.413 Y45.531
G1 F1200 X120.638 Y52.755 E38.94142
G0 F6000 X120.072 Y52.755
G1 F1200 X112.847 Y45.531 E39.28124
G0 F6000 X112.282 Y45.531
G1 F1200 X119.506 Y52.755 E39.62103
G0 F6000 X118.941 Y52.755
G1 F1200 X111.716 Y45.531 E39.96085
G0 F6000 X111.15 Y45.531
G1 F1200 X118.375 Y52.755 E40.30067
G0 F6000 X117.809 Y52.755
G1 F1200 X110.585 Y45.531 E40.64047
G0 F6000 X110.019 Y45.531
G1 F1200 X117.243 Y52.755 E40.98026
G0 F6000 X116.678 Y52.755
G1 F1200 X109.453 Y45.531 E41.32008
G0 F6000 X108.888 Y45.531
G1 F1200 X116.112 Y52.755 E41.65987
G0 F6000 X115.546 Y52.755
G1 F1200 X108.322 Y45.531 E41.99967
G0 F6000 X107.756 Y45.531
G1 F1200 X114.981 Y52.755 E42.33949
G0 F6000 X114.415 Y52.755
G1 F1200 X107.191 Y45.531 E42.67928
G0 F6000 X106.625 Y45.531
G1 F1200 X113.849 Y52.755 E43.01908
G0 F6000 X113.284 Y52.755
G1 F1200 X106.059 Y45.531 E43.35889
G0 F6000 X105.493 Y45.531
G1 F1200 X112.718 Y52.755 E43.69871
G0 F6000 X112.152 Y52.755
G1 F1200 X104.928 Y45.531 E44.03851
G0 F6000 X104.362 Y45.531
G1 F1200 X111.587 Y52.755 E44.37833
G0 F6000 X111.021 Y52.755
G1 F1200 X103.796 Y45.531 E44.71814
G0 F6000 X103.231 Y45.531
G1 F1200 X110.455 Y52.755 E45.05794
G0 F6000 X109.89 Y52.755
G1 F1200 X102.665 Y45.531 E45.39776
G0 F6000 X102.099 Y45.531
G1 F1200 X109.324 Y52.755 E45.73758
G0 F6000 X108.758 Y52.755
G1 F1200 X101.534 Y45.531 E46.07737
G0 F6000 X100.968 Y45.531
G1 F1200 X108.192 Y52.755 E46.41717
G0 F6000 X107.627 Y52.755
G1 F1200 X100.402 Y45.531 E46.75698
G0 F6000 X99.837 Y45.531
G1 F1200 X107.061 Y52.755 E47.09678
G0 F6000 X106.495 Y52.755
G1 F1200 X99.271 Y45.531 E47.43657
G0 F6000 X98.705 Y45.531
G1 F1200 X105.93 Y52.755 E47.77639
G0 F6000 X105.364 Y52.755
G1 F1200 X98.14 Y45.531 E48.11619
G0 F6000 X97.574 Y45.531
G1 F1200 X104.798 Y52.755 E48.45598
G0 F6000 X104.233 Y52.755
G1 F1200 X97.008 Y45.531 E48.7958
G0 F6000 X96.443 Y45.531
G1 F1200 X103.667 Y52.755 E49.13559
G0 F6000 X103.101 Y52.755
G1 F1200 X88.924 Y38.578 E49.80244
G0 F6000 X88.924 Y38.012
G1 F1200 X96.149 Y45.237 E50.14228
G0 F6000 X96.149 Y44.672
G1 F1200 X88.924 Y37.446 E50.48214
G0 F6000 X88.924 Y36.881
G1 F1200 X96.149 Y44.106 E50.82199
G0 F6000 X96.149 Y43.54
G1 F1200 X88.924 Y36.315 E51.16183
G0 F6000 X88.924 Y35.749
G1 F1200 X96.149 Y42.975 E51.50169
G0 F6000 X96.149 Y42.409
G1 F1200 X88.924 Y35.184 E51.84154
G0 F6000 X88.924 Y34.618
G1 F1200 X96.149 Y41.843 E52.18138
G0 F6000 X96.149 Y41.278
G1 F1200 X88.924 Y34.052 E52.52124
G0 F6000 X88.577 Y33.706
G1 F1200 X86.115 Y31.244 E52.63705
G0 F6000 X85.55 Y31.244
G1 F1200 X88.012 Y33.706 E52.75285
G0 F6000 X87.446 Y33.706
G1 F1200 X84.984 Y31.244 E52.86866
G0 F6000 X84.418 Y31.244
G1 F1200 X86.88 Y33.706 E52.98446
G0 F6000 X86.315 Y33.706
G1 F1200 X83.852 Y31.244 E53.10029
G0 F6000 X83.287 Y31.244
G1 F1200 X85.749 Y33.706 E53.2161
G0 F6000 X85.183 Y33.706
G1 F1200 X82.721 Y31.244 E53.3319
G0 F6000 X82.155 Y31.244
G1 F1200 X84.618 Y33.706 E53.44773
G0 F6000 X84.052 Y33.706
G1 F1200 X81.59 Y31.244 E53.56353
G0 F6000 X81.024 Y31.244
G1 F1200 X83.486 Y33.706 E53.67934
G0 F6000 X82.92 Y33.706
G1 F1200 X80.458 Y31.244 E53.79514
G0 F6000 X79.893 Y31.244
G1 F1200 X82.355 Y33.706 E53.91095
G0 F6000 X81.789 Y33.706
G1 F1200 X79.399 Y31.316 E54.02337
G0 F6000 X79.399 Y31.882
G1 F1200 X81.223 Y33.706 E54.10916
G0 F6000 X80.658 Y33.706
G1 F1200 X79.399 Y32.447 E54.16838
G0 F6000 X79.399 Y33.013
G1 F1200 X80.092 Y33.706 E54.20098
G0 F6000 X79.526 Y33.706
G1 F1200 X79.399 Y33.579 E54.20695
G0 F6000 X78.96 Y33.579
G0 X79.032 Y30.876
G0 X86.681 Y30.804
G0 X86.681 Y31.244
G1 F1200 X96.149 Y40.712 E54.6523
G0 F6000 X96.149 Y40.146
G1 F1200 X87.247 Y31.244 E55.07102
G0 F6000 X87.812 Y31.244
G1 F1200 X96.149 Y39.581 E55.46317
G0 F6000 X96.149 Y39.015
G1 F1200 X88.378 Y31.244 E55.82869
G0 F6000 X88.944 Y31.244
G1 F1200 X96.149 Y38.449 E56.16759
G0 F6000 X96.149 Y37.883
G1 F1200 X89.509 Y31.244 E56.47989
G0 F6000 X90.075 Y31.244
G1 F1200 X96.149 Y37.318 E56.7656
G0 F6000 X96.149 Y36.752
G1 F1200 X90.641 Y31.244 E57.02468
G0 F6000 X91.206 Y31.244
G1 F1200 X96.149 Y36.186 E57.25716
G0 F6000 X96.149 Y35.621
G1 F1200 X91.772 Y31.244 E57.46304
G0 F6000 X92.338 Y31.244
G1 F1200 X96.149 Y35.055 E57.64229
G0 F6000 X96.149 Y34.489
G1 F1200 X92.903 Y31.244 E57.79495
G0 F6000 X93.469 Y31.244
G1 F1200 X96.149 Y33.924 E57.92101
G0 F6000 X96.149 Y33.358
G1 F1200 X94.035 Y31.244 E58.02045
G0 F6000 X94.6 Y31.244
G1 F1200 X96.149 Y32.792 E58.09328
G0 F6000 X96.149 Y32.227
G1 F1200 X95.166 Y31.244 E58.13952
G0 F6000 X95.732 Y31.244
G1 F1200 X96.149 Y31.661 E58.15914
G1 F1500 E51.65914
G0 F6000 X96.59 Y31.661
G0 X96.518 Y30.876
G0 X79.032 Y30.876
G0 X79.032 Y34.074
G0 X88.557 Y34.074
G0 X88.485 Y39.144
G0 X88.924 Y39.144
G1 F1500 E58.15914
G1 F1200 X102.536 Y52.755 E58.79938
G0 F6000 X101.97 Y52.755
G1 F1200 X88.924 Y39.709 E59.41302
G0 F6000 X88.924 Y40.275
G1 F1200 X101.404 Y52.755 E60.00004
G0 F6000 X100.839 Y52.755
G1 F1200 X88.924 Y40.841 E60.56047
G0 F6000 X88.924 Y41.406
G1 F1200 X100.273 Y52.755 E61.09429
G0 F6000 X99.707 Y52.755
G1 F1200 X88.924 Y41.972 E61.60149
G0 F6000 X88.924 Y42.538
G1 F1200 X99.142 Y52.755 E62.08209
G0 F6000 X98.576 Y52.755
G1 F1200 X88.924 Y43.103 E62.53609
G0 F6000 X88.924 Y43.669
G1 F1200 X98.01 Y52.755 E62.96347
G0 F6000 X97.444 Y52.755
G1 F1200 X88.924 Y44.235 E63.36422
G0 F6000 X88.924 Y44.8
G1 F1200 X96.879 Y52.755 E63.7384
G0 F6000 X96.313 Y52.755
G1 F1200 X88.924 Y45.366 E64.08595
G0 F6000 X88.924 Y45.932
G1 F1200 X95.747 Y52.755 E64.40689
G0 F6000 X95.182 Y52.755
G1 F1200 X88.924 Y46.497 E64.70124
G0 F6000 X88.924 Y47.063
G1 F1200 X94.616 Y52.755 E64.96898
G0 F6000 X94.05 Y52.755
G1 F1200 X88.924 Y47.629 E65.21009
G0 F6000 X88.924 Y48.194
G1 F1200 X93.485 Y52.755 E65.42463
G0 F6000 X92.919 Y52.755
G1 F1200 X88.924 Y48.76 E65.61254
G0 F6000 X88.924 Y49.326
G1 F1200 X92.353 Y52.755 E65.77383
G0 F6000 X91.788 Y52.755
G1 F1200 X88.924 Y49.892 E65.90852
G0 F6000 X88.924 Y50.457
G1 F1200 X91.222 Y52.755 E66.01661
G0 F6000 X90.656 Y52.755
G1 F1200 X88.924 Y51.023 E66.09808
G0 F6000 X88.924 Y51.589
G1 F1200 X90.091 Y52.755 E66.15295
G0 F6000 X89.525 Y52.755
G1 F1200 X88.924 Y52.154 E66.18121
G0 F6000 X88.575 Y52.154
G1 F1500 E59.68121
;MESH:FrameSupport.stl(2)
G0 F6000 X88.485 Y52.154
G0 X88.557 Y53.124
G0 X131.625 Y53.486
G0 X131.625 Y54.571
G0 X131.625 Y63.429
G0 X131.625 Y64.514
G0 X140.968 Y64.876
G0 X140.968 Y68.074
G0 X131.625 Y68.086
G0 X131.625 Y87.306
;TYPE:WALL-INNER
G1 F1500 E66.18121
G1 F1200 X88.375 Y87.306 E67.61972
G1 X88.375 Y68.256 E68.25332
G1 X78.85 Y68.256 E68.57012
G1 X78.85 Y64.694 E68.6886
G1 X96.7 Y64.694 E69.28229
G1 X96.7 Y78.981 E69.75748
G1 X123.3 Y78.981 E70.6422
G1 X123.3 Y64.694 E71.11738
G1 X141.15 Y64.694 E71.71108
G1 X141.15 Y68.256 E71.82955
G1 X131.625 Y68.256 E72.14635
G1 X131.625 Y87.306 E72.77996
G0 F6000 X132.025 Y87.706
;TYPE:WALL-OUTER
G1 F1200 X87.975 Y87.706 E74.24507
G1 X87.975 Y68.656 E74.87867
G1 X78.45 Y68.656 E75.19548
G1 X78.45 Y64.294 E75.34056
G1 X97.1 Y64.294 E75.96086
G1 X97.1 Y78.581 E76.43605
G1 X122.9 Y78.581 E77.29416
G1 X122.9 Y64.294 E77.76935
G1 X141.55 Y64.294 E78.38965
G1 X141.55 Y68.656 E78.53473
G1 X132.025 Y68.656 E78.85153
G1 X132.025 Y87.706 E79.48514
G0 F6000 X131.755 Y87.436
G0 X131.515 Y86.916
G0 X131.235 Y86.916
;TYPE:SKIN
G1 F1200 X88.765 Y86.916 E80.89769
G1 X88.765 Y67.866 E81.5313
G1 X79.24 Y67.866 E81.8481
G1 X79.24 Y65.084 E81.94063
G1 X96.31 Y65.084 E82.50838
G1 X96.31 Y79.371 E82.98357
G1 X123.69 Y79.371 E83.89423
G1 X123.69 Y65.084 E84.36942
G1 X140.76 Y65.084 E84.93717
G1 X140.76 Y67.866 E85.0297
G1 X131.235 Y67.866 E85.3465
G1 X131.235 Y86.916 E85.98011
G1 F1500 E79.48011
G0 F6000 X131.515 Y86.916
G0 X131.797 Y68.428
G0 X140.968 Y68.074
G0 X141.04 Y65.362
G0 X140.598 Y65.362
G1 F1500 E85.98011
G1 F1200 X140.48 Y65.244 E85.98566
G0 F6000 X139.914 Y65.244
G1 F1200 X140.598 Y65.928 E86.01783
G0 F6000 X140.598 Y66.494
G1 F1200 X139.348 Y65.244 E86.07663
G0 F6000 X138.783 Y65.244
G1 F1200 X140.598 Y67.059 E86.162
G0 F6000 X140.598 Y67.625
G1 F1200 X138.217 Y65.244 E86.274
G0 F6000 X137.651 Y65.244
G1 F1200 X140.113 Y67.706 E86.3898
G0 F6000 X139.548 Y67.706
G1 F1200 X137.086 Y65.244 E86.50561
G0 F6000 X136.52 Y65.244
G1 F1200 X138.982 Y67.706 E86.62141
G0 F6000 X138.416 Y67.706
G1 F1200 X135.954 Y65.244 E86.73721
G0 F6000 X135.389 Y65.244
G1 F1200 X137.851 Y67.706 E86.85302
G0 F6000 X137.285 Y67.706
G1 F1200 X134.823 Y65.244 E86.96882
G0 F6000 X134.257 Y65.244
G1 F1200 X136.719 Y67.706 E87.08463
G0 F6000 X136.154 Y67.706
G1 F1200 X133.691 Y65.244 E87.20046
G0 F6000 X133.126 Y65.244
G1 F1200 X135.588 Y67.706 E87.31626
G0 F6000 X135.022 Y67.706
G1 F1200 X132.56 Y65.244 E87.43207
G0 F6000 X131.994 Y65.244
G1 F1200 X134.457 Y67.706 E87.5479
G0 F6000 X133.891 Y67.706
G1 F1200 X131.429 Y65.244 E87.6637
G0 F6000 X130.863 Y65.244
G1 F1200 X133.325 Y67.706 E87.77951
G0 F6000 X132.76 Y67.706
G1 F1200 X130.297 Y65.244 E87.89533
G0 F6000 X129.732 Y65.244
G1 F1200 X132.194 Y67.706 E88.01114
G0 F6000 X131.628 Y67.706
G1 F1200 X129.166 Y65.244 E88.12694
G0 F6000 X128.6 Y65.244
G1 F1200 X131.074 Y67.717 E88.24329
G0 F6000 X131.074 Y68.283
G1 F1200 X128.035 Y65.244 E88.38624
G0 F6000 X127.469 Y65.244
G1 F1200 X131.074 Y68.848 E88.55578
G0 F6000 X131.074 Y69.414
G1 F1200 X126.903 Y65.244 E88.75195
G0 F6000 X126.338 Y65.244
